assets/skill/herr-photoshop.svg

<svg width="57" height="57" viewBox="0 0 57 57" fill="none" xmlns="http://www.w3.org/2000/svg">
<rect width="57" height="56.7516" rx="8.25478" fill="url(#paint0_linear_568_896)"/>
<path d="M7.15869 7.61646H49.8413V49.135H7.15869V7.61646Z" fill="#0C0824"/>
<path d="M7.15862 7.61651H49.8413V49.1351H7.15862V7.61651ZM5.2179 51.0758H51.782V5.67578H5.2179V51.0758ZM36.6104 24.3014C35.0771 24.3014 34.5533 25.078 34.5533 25.7183C34.5533 26.4168 34.9025 26.9024 36.9596 27.9683C40.0063 29.4434 40.9509 30.8586 40.9509 32.9357C40.9509 36.0406 38.5844 37.7086 35.3831 37.7086C34.0092 37.7595 32.6437 37.474 31.4052 36.8771C31.2688 36.8189 31.2506 36.7224 31.2506 36.5661V33.7107C31.2506 33.5161 31.347 33.4579 31.4834 33.556C32.6465 34.304 34.0003 34.7012 35.3831 34.7002C36.9164 34.7002 37.5567 34.0599 37.5567 33.1869C37.5567 32.4884 37.111 31.8681 35.1503 30.8586C32.3947 29.5399 31.2506 28.1978 31.2506 25.9694C31.2506 23.4666 33.2096 21.3912 36.6054 21.3912C37.7875 21.3404 38.9678 21.5253 40.0778 21.935C40.1417 21.9765 40.1934 22.0342 40.2276 22.1023C40.2618 22.1704 40.2773 22.2464 40.2724 22.3224V24.9833C40.2724 25.1379 40.1759 25.236 39.9813 25.1778C38.9555 24.5873 37.7889 24.2856 36.6054 24.3047L36.6104 24.3014ZM19.9238 26.6097C20.3695 26.6479 20.7188 26.6479 21.4954 26.6479C23.7654 26.6479 25.899 25.853 25.899 22.7681C25.899 20.3036 24.3657 19.063 21.7864 19.063C21.0098 19.063 20.2731 19.1012 19.9238 19.1212V26.6097ZM16.4698 16.299C16.4698 16.1627 16.7408 16.0662 16.8972 16.0662C18.1394 16.008 19.982 15.9698 21.9028 15.9698C27.2776 15.9698 29.373 18.9183 29.373 22.6833C29.373 27.6108 25.8026 29.7261 21.4189 29.7261C20.6822 29.7261 20.4294 29.6879 19.9055 29.6879V37.1381C19.9055 37.2928 19.8473 37.371 19.6727 37.371H16.7043C16.5496 37.371 16.4714 37.3128 16.4714 37.1381V16.3074L16.4698 16.299Z" fill="#31C5F0"/>
<defs>
<linearGradient id="paint0_linear_568_896" x1="28.5" y1="0" x2="28.5" y2="56.7516" gradientUnits="userSpaceOnUse">
<stop stop-color="#FDFDFD"/>
<stop offset="1" stop-color="#F5F4F4"/>
</linearGradient>
</defs>
</svg>

<svg xmlns="http://www.w3.org/2000/svg" width="57" height="57" fill="none" viewBox="0 0 57 57"><rect width="57" height="56.752" fill="url(#paint0_linear_568_896)" rx="8.255"/><path fill="#0c0824" d="M7.159 7.616H49.84v41.519H7.16z"/><path fill="#31c5f0" d="M7.159 7.617H49.84v41.518H7.16zM5.218 51.076h46.564v-45.4H5.218zM36.61 24.3c-1.533 0-2.057.777-2.057 1.417 0 .699.35 1.184 2.407 2.25 3.046 1.475 3.99 2.89 3.99 4.968 0 3.105-2.366 4.773-5.567 4.773a8.44 8.44 0 0 1-3.978-.832c-.136-.058-.154-.155-.154-.31V33.71c0-.195.096-.253.232-.155a7.2 7.2 0 0 0 3.9 1.144c1.533 0 2.174-.64 2.174-1.513 0-.699-.446-1.319-2.407-2.328-2.755-1.32-3.9-2.661-3.9-4.89 0-2.502 1.96-4.578 5.355-4.578a8.9 8.9 0 0 1 3.473.544.43.43 0 0 1 .194.387v2.661c0 .155-.096.253-.29.195a6.56 6.56 0 0 0-3.377-.873zm-16.686 2.31c.445.038.795.038 1.571.038 2.27 0 4.404-.795 4.404-3.88 0-2.464-1.533-3.705-4.113-3.705-.776 0-1.513.038-1.862.058zM16.47 16.299c0-.136.27-.233.427-.233 1.242-.058 3.085-.096 5.006-.096 5.375 0 7.47 2.948 7.47 6.713 0 4.928-3.57 7.043-7.954 7.043-.737 0-.99-.038-1.514-.038v7.45c0 .155-.058.233-.232.233h-2.969c-.154 0-.233-.058-.233-.233v-20.83z"/><defs><linearGradient id="paint0_linear_568_896" x1="28.5" x2="28.5" y1="0" y2="56.752" gradientUnits="userSpaceOnUse"><stop stop-color="#fdfdfd"/><stop offset="1" stop-color="#f5f4f4"/></linearGradient></defs></svg>
